src/assets/INSTAGRAM.svg

<svg width="17" height="17" viewBox="0 0 17 17" fill="none" xmlns="http://www.w3.org/2000/svg">
<circle cx="8.11719" cy="8.74316" r="3.5" fill="#2196F3"/>
<path fill-rule="evenodd" clip-rule="evenodd" d="M4.9946 5.08123C5.9012 4.17463 7.10656 3.66999 8.38867 3.66999C9.67079 3.66999 10.8761 4.17729 11.7827 5.08389C12.358 5.65912 12.7689 6.35036 12.9927 7.12179H16.5958V2.27893C16.5958 1.14279 15.7177 0.264648 14.5815 0.264648H2.23867C1.10253 0.264648 0.138672 1.14279 0.138672 2.27893V7.12179H3.78461C4.00841 6.35036 4.41937 5.65646 4.9946 5.08123ZM15.2243 3.83003C15.2243 4.13298 14.9787 4.3786 14.6757 4.3786H13.03C12.7271 4.3786 12.4814 4.13303 12.4814 3.83003V2.18431C12.4814 1.88136 12.727 1.63574 13.03 1.63574H14.6757C14.9787 1.63574 15.2243 1.88131 15.2243 2.18431V3.83003Z" fill="#2196F3"/>
<path fill-rule="evenodd" clip-rule="evenodd" d="M11.7827 11.8694C10.8761 12.776 9.67079 13.2699 8.38867 13.2699C7.10656 13.2699 5.9012 12.7787 4.9946 11.8721C4.08967 10.9672 3.59064 9.73602 3.58876 8.49316H0.138672V14.6217C0.138672 15.7579 1.10253 16.7217 2.23867 16.7217H14.5815C15.7177 16.7217 16.5958 15.7579 16.5958 14.6217V8.49316H13.1886C13.1867 9.73602 12.6877 10.9645 11.7827 11.8694Z" fill="#2196F3"/>
</svg>

<svg width="17" height="17" fill="none" xmlns="http://www.w3.org/2000/svg"><circle cx="8.117" cy="8.743" r="3.5" fill="#2196F3"/><path fill-rule="evenodd" clip-rule="evenodd" d="M4.995 5.081A4.774 4.774 0 0 1 8.389 3.67c1.282 0 2.487.507 3.394 1.414a4.728 4.728 0 0 1 1.21 2.038h3.603V2.279A1.985 1.985 0 0 0 14.582.265H2.239c-1.136 0-2.1.878-2.1 2.014v4.843h3.646a4.738 4.738 0 0 1 1.21-2.04zm10.23-1.251a.549.549 0 0 1-.55.549H13.03a.549.549 0 0 1-.549-.549V2.184c0-.303.246-.548.549-.548h1.646c.303 0 .548.245.548.548V3.83zM11.783 11.87a4.763 4.763 0 0 1-3.394 1.4 4.76 4.76 0 0 1-3.394-1.398 4.814 4.814 0 0 1-1.406-3.379H.139v6.129c0 1.136.964 2.1 2.1 2.1H14.58c1.137 0 2.015-.964 2.015-2.1V8.493h-3.407a4.807 4.807 0 0 1-1.406 3.376z" fill="#2196F3"/></svg>
